ui/assets/img/Homepage/logo/progressly.svg

<?xml version="1.0" encoding="UTF-8" standalone="no"?>
<svg width="120px" height="15px" viewBox="0 0 120 15" version="1.1" xmlns="http://www.w3.org/2000/svg" xmlns:xlink="http://www.w3.org/1999/xlink">
    <!-- Generator: sketchtool 39.1 (31720) - http://www.bohemiancoding.com/sketch -->
    <title>8591F90B-4D03-42B0-8D89-B430A5D0EAFA</title>
    <desc>Created with sketchtool.</desc>
    <defs>
        <rect id="path-1" x="91" y="28" width="320" height="691"></rect>
        <filter x="-50%" y="-50%" width="200%" height="200%" filterUnits="objectBoundingBox" id="filter-3">
            <feOffset dx="0" dy="4" in="SourceAlpha" result="shadowOffsetOuter1"></feOffset>
            <feGaussianBlur stdDeviation="6" in="shadowOffsetOuter1" result="shadowBlurOuter1"></feGaussianBlur>
            <feColorMatrix values="0 0 0 0 0   0 0 0 0 0   0 0 0 0 0  0 0 0 0.112347147 0" type="matrix" in="shadowBlurOuter1"></feColorMatrix>
        </filter>
        <polygon id="path-4" points="60 14.7368421 120 14.7368421 120 0 0 0 0 7.36842105 0 14.7368421"></polygon>
    </defs>
    <g id="Page-1" stroke="none" stroke-width="1" fill="none" fill-rule="evenodd">
        <g id="Homepage---Mobile" transform="translate(-168.000000, -2403.000000)">
            <g id="Testimonials" transform="translate(-91.000000, 2172.000000)">
                <rect id="Rectangle-7" fill="#B114F7" x="0" y="0" width="471" height="759"></rect>
                <mask id="mask-2" fill="white">
                    <use xlink:href="#path-1"></use>
                </mask>
                <g id="Grey-Background">
                    <use fill="black" fill-opacity="1" filter="url(#filter-3)" xlink:href="#path-1"></use>
                    <use fill="#FFFFFF" fill-rule="evenodd" xlink:href="#path-1"></use>
                </g>
            </g>
            <g id="Logos" transform="translate(31.000000, 2355.000000)">
                <g id="Page-1" transform="translate(137.000000, 48.000000)">
                    <mask id="mask-5" fill="white">
                        <use xlink:href="#path-4"></use>
                    </mask>
                    <g id="Clip-2"></g>
                    <path d="M4.16855368,6.91218526 C5.11749263,6.91218526 5.91434737,6.12254737 5.91434737,5.08768316 C5.91434737,4.12256842 5.11749263,3.38557895 4.16855368,3.38557895 L2.20289474,3.38557895 L2.20289474,6.91218526 L4.16855368,6.91218526 L4.16855368,6.91218526 L4.16855368,6.91218526 Z M0,1.56107368 C0,1.3856 0.135562737,1.22766316 0.321961474,1.22766316 L4.30411684,1.22766316 C6.38839368,1.22766316 8.10029684,2.98197895 8.10029684,5.10523053 C8.10029684,7.28068316 6.38839368,9.05254316 4.32148526,9.05254316 L2.20289474,9.05254316 L2.20289474,13.1757716 C2.20289474,13.3512463 2.05038632,13.5091737 1.88093263,13.5091737 L0.321961474,13.5091737 C0.135562737,13.5091737 0,13.3512463 0,13.1757716 L0,1.56107368 L0,1.56107368 L0,1.56107368 Z M14.6204421,6.82444842 C15.5185474,6.82444842 16.2984526,6.01726211 16.2984526,5.03504 C16.2984526,4.10502105 15.5185474,3.33292632 14.6204421,3.33292632 L11.8583474,3.33292632 L11.8583474,6.82444842 L14.6204421,6.82444842 L14.6204421,6.82444842 L14.6204421,6.82444842 Z M9.63851053,1.56107368 C9.63851053,1.3856 9.77407263,1.22766316 9.96047158,1.22766316 L14.8072632,1.22766316 C16.8407053,1.22766316 18.5009263,2.91223158 18.5009263,4.99994526 C18.5009263,6.61387789 17.4672526,7.92994105 15.9930105,8.54410421 L18.3145263,13.0002968 C18.4335684,13.2284137 18.3145263,13.5091737 18.0264526,13.5091737 L16.2476211,13.5091737 C16.0951053,13.5091737 16.0099579,13.4209979 15.9760632,13.3512463 L13.7223368,8.70203263 L11.8414,8.70203263 L11.8414,13.1757716 C11.8414,13.3512463 11.6888947,13.5091737 11.5194421,13.5091737 L9.96047158,13.5091737 C9.77407263,13.5091737 9.63851053,13.3512463 9.63851053,13.1757716 L9.63851053,1.56107368 L9.63851053,1.56107368 L9.63851053,1.56107368 Z M25.7958947,11.4034726 C27.9314316,11.4034726 29.6933158,9.59651684 29.6933158,7.38596842 C29.6933158,5.17542 27.9314316,3.33292632 25.7958947,3.33292632 C23.6607789,3.33292632 21.9154105,5.17542 21.9154105,7.38596842 C21.9154105,9.59651684 23.6607789,11.4034726 25.7958947,11.4034726 L25.7958947,11.4034726 L25.7958947,11.4034726 L25.7958947,11.4034726 Z M25.7958947,1.05263158 C29.1853789,1.05263158 31.8966421,3.87690526 31.8966421,7.38596842 C31.8966421,10.8950337 29.1853789,13.6842105 25.7958947,13.6842105 C22.4068211,13.6842105 19.7125158,10.8950337 19.7125158,7.38596842 C19.7125158,3.87690526 22.4068211,1.05263158 25.7958947,1.05263158 L25.7958947,1.05263158 L25.7958947,1.05263158 L25.7958947,1.05263158 Z M39.2102526,1.05263158 C40.7353263,1.05263158 42.1926316,1.66635789 43.3449158,2.68411579 C43.4804737,2.82449474 43.4974211,3.03506316 43.3618526,3.175 L42.3112421,4.31559263 C42.1756842,4.45597158 42.0231789,4.45597158 41.8706632,4.31559263 C41.1420211,3.64878947 40.2439158,3.29827368 39.3119158,3.29827368 C37.1937474,3.29827368 35.5161684,5.17542 35.5161684,7.36842105 C35.5161684,9.54387474 37.1937474,11.3859242 39.3288632,11.3859242 C40.2778,11.3859242 41.0064526,11.0880558 41.3453579,10.9476747 L41.3453579,9.45613684 L39.9897368,9.45613684 C39.8033368,9.45613684 39.6677684,9.31575684 39.6677684,9.14028211 L39.6677684,7.75446632 C39.6677684,7.56144421 39.8033368,7.42106316 39.9897368,7.42106316 L43.2432421,7.42106316 C43.4126947,7.42106316 43.5482526,7.57899158 43.5482526,7.75446632 L43.5482526,12.2457537 C43.5482526,12.3861337 43.4804737,12.4738705 43.4126947,12.5265126 C43.4126947,12.5265126 41.6673263,13.6666632 39.2102526,13.6666632 C35.8381263,13.6666632 33.1268737,10.8950337 33.1268737,7.38596842 C33.1268737,3.87690526 35.8381263,1.05263158 39.2102526,1.05263158 L39.2102526,1.05263158 L39.2102526,1.05263158 L39.2102526,1.05263158 Z M50.9046526,6.82444842 C51.8027579,6.82444842 52.5822421,6.01726211 52.5822421,5.03504 C52.5822421,4.10502105 51.8027579,3.33292632 50.9046526,3.33292632 L48.1425579,3.33292632 L48.1425579,6.82444842 L50.9046526,6.82444842 L50.9046526,6.82444842 L50.9046526,6.82444842 Z M45.9222947,1.56107368 C45.9222947,1.3856 46.0582842,1.22766316 46.2446842,1.22766316 L51.0910526,1.22766316 C53.1244947,1.22766316 54.7851368,2.91223158 54.7851368,4.99994526 C54.7851368,6.61387789 53.7514737,7.92994105 52.2772211,8.54410421 L54.5987368,13.0002968 C54.7173474,13.2284137 54.5987368,13.5091737 54.3106632,13.5091737 L52.5314,13.5091737 C52.3788947,13.5091737 52.2941684,13.4209979 52.2602737,13.3512463 L50.0065474,8.70203263 L48.1256105,8.70203263 L48.1256105,13.1757716 C48.1256105,13.3512463 47.9731053,13.5091737 47.8036526,13.5091737 L46.2446842,13.5091737 C46.0582842,13.5091737 45.9222947,13.3512463 45.9222947,13.1757716 L45.9222947,1.56107368 L45.9222947,1.56107368 L45.9222947,1.56107368 Z M56.9333789,1.56107368 C56.9333789,1.3856 57.0693684,1.22766316 57.2557579,1.22766316 L64.1520947,1.22766316 C64.3389158,1.22766316 64.4740526,1.3856 64.4740526,1.56107368 L64.4740526,2.99952632 C64.4740526,3.175 64.3389158,3.33292632 64.1520947,3.33292632 L59.1362737,3.33292632 L59.1362737,6.21028526 L63.3222,6.21028526 C63.4916526,6.21028526 63.6441579,6.36821263 63.6441579,6.54368842 L63.6441579,7.99969263 C63.6441579,8.19271579 63.4916526,8.33353474 63.3222,8.33353474 L59.1362737,8.33353474 L59.1362737,11.4034726 L64.1520947,11.4034726 C64.3389158,11.4034726 64.4740526,11.5614 64.4740526,11.7368747 L64.4740526,13.1757716 C64.4740526,13.3512463 64.3389158,13.5091737 64.1520947,13.5091737 L57.2557579,13.5091737 C57.0693684,13.5091737 56.9333789,13.3512463 56.9333789,13.1757716 L56.9333789,1.56107368 L56.9333789,1.56107368 L56.9333789,1.56107368 Z M65.9368632,11.7895179 L66.5468947,10.7020105 C66.6824632,10.4563453 66.9705263,10.4563453 67.1226105,10.5791779 C67.2077579,10.6313821 68.5799158,11.6666853 69.6817789,11.6666853 C70.5629368,11.6666853 71.2238105,11.0700695 71.2238105,10.3159653 C71.2238105,9.42104105 70.4951579,8.80687895 69.0717474,8.21026316 C67.4784632,7.54389579 65.8860211,6.49104526 65.8860211,4.42087684 C65.8860211,2.85958947 67.0044211,1.05263158 69.6987263,1.05263158 C71.4267263,1.05263158 72.7488842,1.96466316 73.0877895,2.22787368 C73.2572526,2.33315789 73.3080842,2.63147368 73.1894737,2.80694737 L72.5455474,3.80671579 C72.4099789,4.01728421 72.1553789,4.15766316 71.9524632,4.01728421 C71.8164737,3.92954737 70.5290421,3.05261053 69.5970526,3.05261053 C68.6311789,3.05261053 68.1058632,3.71897895 68.1058632,4.28049684 C68.1058632,5.10523053 68.7328421,5.66675053 70.1054105,6.24538 C71.7491158,6.92973263 73.647,7.94748947 73.647,10.21068 C73.647,12.0176358 72.1384316,13.6842105 69.7495579,13.6842105 C67.6144526,13.6842105 66.3600737,12.6493453 66.0211684,12.3159432 C65.8690842,12.1580158 65.7843579,12.0702768 65.9368632,11.7895179 L65.9368632,11.7895179 L65.9368632,11.7895179 L65.9368632,11.7895179 Z M74.8801895,11.7895179 L75.4902211,10.7020105 C75.6257895,10.4563453 75.9138526,10.4563453 76.0663684,10.5791779 C76.1510947,10.6313821 77.5236632,11.6666853 78.6251158,11.6666853 C79.5062632,11.6666853 80.1671368,11.0700695 80.1671368,10.3159653 C80.1671368,9.42104105 79.4384842,8.80687895 78.0150842,8.21026316 C76.4222105,7.54389579 74.8293474,6.49104526 74.8293474,4.42087684 C74.8293474,2.85958947 75.9477474,1.05263158 78.6420526,1.05263158 C80.3704842,1.05263158 81.6922105,1.96466316 82.0311263,2.22787368 C82.2005789,2.33315789 82.2514105,2.63147368 82.1327895,2.80694737 L81.4888737,3.80671579 C81.3533053,4.01728421 81.0991263,4.15766316 80.8957895,4.01728421 C80.7602211,3.92954737 79.4723789,3.05261053 78.5403895,3.05261053 C77.5744947,3.05261053 77.0491895,3.71897895 77.0491895,4.28049684 C77.0491895,5.10523053 77.6761789,5.66675053 79.0487474,6.24538 C80.6924421,6.92973263 82.5903158,7.94748947 82.5903158,10.21068 C82.5903158,12.0176358 81.0821895,13.6842105 78.6928947,13.6842105 C76.5577789,13.6842105 75.3034,12.6493453 74.9644947,12.3159432 C74.8124,12.1580158 74.7276737,12.0702768 74.8801895,11.7895179 L74.8801895,11.7895179 L74.8801895,11.7895179 L74.8801895,11.7895179 Z M84.5369158,1.56107368 C84.5369158,1.3856 84.6724842,1.22766316 84.8588842,1.22766316 L86.4182737,1.22766316 C86.5872947,1.22766316 86.7398105,1.3856 86.7398105,1.56107368 L86.7398105,11.4034726 L91.0608737,11.4034726 C91.2472737,11.4034726 91.3828316,11.5614 91.3828316,11.7368747 L91.3828316,13.1757716 C91.3828316,13.3512463 91.2472737,13.5091737 91.0608737,13.5091737 L84.8588842,13.5091737 C84.6724842,13.5091737 84.5369158,13.3512463 84.5369158,13.1757716 L84.5369158,1.56107368 L84.5369158,1.56107368 L84.5369158,1.56107368 Z M93.8293158,7.59653895 L89.9657789,1.73654737 C89.8306421,1.50843158 89.9657789,1.22766316 90.2369053,1.22766316 L91.9657474,1.22766316 C92.1008947,1.22766316 92.1856211,1.31541053 92.2364526,1.3856 L94.9477158,5.42064632 L97.6589684,1.3856 C97.7102211,1.31541053 97.7945263,1.22766316 97.9300842,1.22766316 L99.6754632,1.22766316 C99.9470105,1.22766316 100.082147,1.50843158 99.9470105,1.73654737 L96.0322105,7.57899158 L96.0322105,13.1757716 C96.0322105,13.3512463 95.8797053,13.5091737 95.7102526,13.5091737 L94.1516947,13.5091737 C93.9648737,13.5091737 93.8293158,13.3512463 93.8293158,13.1757716 L93.8293158,7.59653895 L93.8293158,7.59653895 L93.8293158,7.59653895 Z" id="Fill-1" fill="#111111" mask="url(#mask-5)"></path>
                    <path d="M119.868737,6.72909895 L116.844211,0.638368421 C116.669579,0.287221053 116.205368,0 115.813263,0 L105.976316,0 C105.584211,0 105.263158,0.320610526 105.263158,0.713747368 L105.263158,14.0230922 C105.263158,14.4147954 105.584211,14.7368421 105.976316,14.7368421 L115.813263,14.7368421 C116.205368,14.7368421 116.669579,14.4481929 116.844211,14.0970431 L119.868737,8.00774316 C120.043789,7.65611579 120.043789,7.08072632 119.868737,6.72909895" id="Fill-3" fill="#62AB32" mask="url(#mask-5)"></path>
                </g>
            </g>
        </g>
    </g>
</svg>

<svg xmlns="http://www.w3.org/2000/svg" viewBox="0 0 120 15" xmlns:xlink="http://www.w3.org/1999/xlink"><defs><path id="b" d="M91 28h320v691H91z"/><filter id="a" width="200%" height="200%" x="-50%" y="-50%" filterUnits="objectBoundingBox"><feOffset dy="4" in="SourceAlpha" result="shadowOffsetOuter1"/><feGaussianBlur stdDeviation="6" in="shadowOffsetOuter1" result="shadowBlurOuter1"/><feColorMatrix values="0 0 0 0 0 0 0 0 0 0 0 0 0 0 0 0 0 0 0.112347147 0" in="shadowBlurOuter1"/></filter><path id="c" d="M60 14.74h60V0H0v14.74z"/></defs><g fill="none" fill-rule="evenodd"><path fill="#B114F7" d="M-259-231h471v759h-471z"/><g transform="translate(-259 -231)"><use fill="#000" filter="url(#a)" xlink:href="#b"/><use fill="#FFF" xlink:href="#b"/></g><mask id="d" fill="#fff"><use xlink:href="#c"/></mask><path fill="#111" d="M4.17 6.9c.95 0 1.74-.78 1.74-1.8 0-.98-.7-1.7-1.7-1.7h-2v3.5h2zM0 1.57c0-.17.14-.33.32-.33H4.3c2.1 0 3.8 1.75 3.8 3.88 0 2.18-1.7 3.95-3.78 3.95H2.2v4.13c0 .17-.15.33-.32.33H.32c-.18 0-.32-.15-.32-.32V1.6zm14.62 5.26c.9 0 1.68-.8 1.68-1.78 0-.93-.78-1.7-1.68-1.7h-2.76V6.8h2.76zM9.64 1.56c0-.17.13-.33.32-.33h4.85c2.1 0 3.7 1.68 3.7 3.77 0 1.6-1 2.93-2.5 3.54L18.3 13c.13.23 0 .5-.27.5h-1.78c-.15 0-.24-.08-.27-.15L13.72 8.7h-1.88v4.48c0 .17-.15.33-.32.33H9.96c-.2 0-.32-.1-.32-.3V1.6zM25.8 11.4c2.13 0 3.9-1.8 3.9-4 0-2.22-1.77-4.07-3.9-4.07-2.14 0-3.88 1.85-3.88 4.06 0 2.2 1.74 4 3.88 4zm0-10.35c3.4 0 6.1 2.83 6.1 6.34 0 3.5-2.7 6.2-6.1 6.2-3.4 0-6.1-2.8-6.1-6.3S22.4 1 25.8 1zm13.4 0c1.54 0 3 .62 4.14 1.63.14.14.16.36.02.5L42.3 4.3c-.12.14-.28.14-.43 0-.73-.67-1.63-1.02-2.56-1.02-2.1 0-3.7 1.88-3.7 4.07 0 2.17 1.7 4.02 3.8 4.02 1 0 1.7-.3 2.1-.45v-1.5H40c-.2 0-.33-.13-.33-.3v-1.4c0-.2.13-.33.32-.33h3.2c.1 0 .3.1.3.3v4.5c0 .1-.1.2-.2.3 0 0-1.8 1.1-4.2 1.1-3.4 0-6.1-2.8-6.1-6.3S35.7.9 39.1.9zm11.7 5.77c.9 0 1.68-.8 1.68-1.78 0-.93-.78-1.7-1.68-1.7h-2.76V6.8h2.76zm-4.98-5.26c0-.17.14-.33.32-.33h4.85c2 0 3.7 1.68 3.7 3.77 0 1.6-1.1 2.93-2.6 3.54L54.6 13c.12.23 0 .5-.3.5h-1.77c-.15 0-.24-.08-.27-.15L50 8.7h-1.87v4.48c0 .17-.16.33-.33.33h-1.56c-.18 0-.32-.1-.32-.3V1.6zm11 0c0-.17.15-.33.34-.33h6.9c.18 0 .3.16.3.33V3c0 .17-.12.33-.3.33h-5.02V6.2h4.18c.17 0 .32.17.32.34V8c0 .2-.15.33-.32.33h-4.18v3.07h5c.2 0 .33.16.33.34v1.44c0 .17-.13.33-.32.33h-6.9c-.18 0-.32-.1-.32-.3V1.6zm9.02 10.23l.6-1.1c.14-.3.43-.3.58-.2.1 0 1.46 1.1 2.56 1.1.88 0 1.54-.6 1.54-1.4 0-.9-.72-1.5-2.15-2.1-1.6-.7-3.18-1.8-3.18-3.8C65.9 2.8 67 1 69.7 1c1.7 0 3 .9 3.4 1.2.12.1.2.4.1.6l-.7 1c-.13.2-.4.34-.6.2-.12-.1-1.4-.97-2.34-.97-.98 0-1.5.67-1.5 1.23 0 .83.62 1.4 2 1.97 1.64.68 3.54 1.7 3.54 3.96 0 1.8-1.5 3.5-3.9 3.5-2.13 0-3.4-1.1-3.72-1.4-.15-.2-.24-.3-.08-.6zm8.94 0l.6-1.1c.15-.3.43-.3.6-.2.07 0 1.44 1.1 2.55 1.1.88 0 1.54-.6 1.54-1.4 0-.9-.73-1.5-2.15-2.1-1.6-.7-3.2-1.8-3.2-3.8 0-1.5 1.13-3.3 3.82-3.3 1.73 0 3.05.9 3.4 1.2.16.1.2.4.1.6l-.65 1c-.2.2-.4.3-.6.2-.2-.1-1.5-1-2.4-1-1 0-1.5.6-1.5 1.2 0 .8.6 1.4 2 1.9 1.6.7 3.5 1.7 3.5 3.94 0 1.8-1.5 3.5-3.9 3.5-2.2 0-3.4-1.1-3.8-1.4-.2-.2-.3-.3-.1-.57zm9.66-10.3c0-.2.13-.4.32-.4h1.56c.17 0 .32.1.32.3v9.8h4.32c.2 0 .32.1.32.3V13c0 .17-.13.33-.32.33h-6.2c-.2 0-.32-.2-.32-.36V1.53zm9.3 6l-3.87-5.8c-.14-.3 0-.5.27-.5h1.73c.13 0 .22.1.27.1l2.7 4 2.72-4.1c.05-.1.13-.2.27-.2h1.75c.27 0 .4.3.27.5l-3.92 5.9V13c0 .18-.15.34-.32.34h-1.5c-.2 0-.3-.1-.3-.3V7.6z" mask="url(#d)"/><path fill="#62AB32" d="M119.87 6.73l-3.03-6.1C116.67.3 116.2 0 115.8 0H106c-.4 0-.72.32-.72.7v13.32c0 .4.32.72.72.72h9.83c.4 0 .87-.3 1.04-.64L119.9 8c.17-.34.17-.92 0-1.27" mask="url(#d)"/></g></svg>
